X:1053
T:Annie Roonie
C:Joe Buchanan's Scottish Tome - Page 635.3
I:635 3
Z:Carl Allison
R:Waltz
L:1/4
M:3/4
K:C
"C"G | C3 | G3 | "C7"C3 | "F"c3 | "F7"A3 | A "C"G2- | G3 |
"F"A3 | F3 | G "C"E2- | "A7"E3 | "D7"C3 | "G7"D3- | "G"D3 | 
"C"G3 | E3 | "C7"D C2- | "C"C3 | "F"G c2 | c B | A3- | A3 |
"C"G2 G | "F"A2 B | c "C"G2- | G2 A | "D7"E3 | "D7"D3 | "C"C3- | C2 |]

